www/source/img/svg/sale.svg

<svg width="133" height="133" viewBox="0 0 133 133" fill="none" xmlns="http://www.w3.org/2000/svg">
<circle cx="67" cy="68" r="35" fill="#EB5757"/>
<path d="M103.352 15.7938L106.732 37.1846L126.184 47.1042L116.375 66.5L126.239 85.8958L106.622 95.8154L103.241 117.206L81.6841 113.826L66.3337 129.121L50.9278 113.604L29.537 117.151L26.1012 95.5938L6.76074 85.7296L16.6249 66.3338L6.81616 47.1042L26.2674 37.0738L29.6478 15.8492L51.0941 19.3958L66.4999 3.82376L81.8503 19.1742L103.352 15.7938ZM52.6457 38.7917C50.4411 38.7917 48.3268 39.6675 46.7679 41.2263C45.209 42.7852 44.3332 44.8996 44.3332 47.1042C44.3332 49.3088 45.209 51.4231 46.7679 52.982C48.3268 54.5409 50.4411 55.4167 52.6457 55.4167C54.8504 55.4167 56.9647 54.5409 58.5236 52.982C60.0825 51.4231 60.9582 49.3088 60.9582 47.1042C60.9582 44.8996 60.0825 42.7852 58.5236 41.2263C56.9647 39.6675 54.8504 38.7917 52.6457 38.7917ZM80.3541 77.5833C78.1495 77.5833 76.0351 78.4591 74.4762 80.018C72.9174 81.5769 72.0416 83.6912 72.0416 85.8958C72.0416 88.1005 72.9174 90.2148 74.4762 91.7737C76.0351 93.3326 78.1495 94.2083 80.3541 94.2083C82.5587 94.2083 84.673 93.3326 86.2319 91.7737C87.7908 90.2148 88.6666 88.1005 88.6666 85.8958C88.6666 83.6912 87.7908 81.5769 86.2319 80.018C84.673 78.4591 82.5587 77.5833 80.3541 77.5833ZM46.6053 94.2083L94.2082 46.6054L86.3945 38.7917L38.7916 86.3946L46.6053 94.2083Z" fill="#EB5757"/>
<path d="M49.6254 41.34V45.54C51.7854 43.89 54.1854 43.11 56.2254 43.11C58.2954 43.11 59.6154 43.89 59.6154 45.39C59.6154 47.34 57.7854 48.15 55.6554 49.38C52.6554 51.15 48.9354 53.07 48.9354 57.99V60H64.2354V56.13L54.0354 56.16C54.0654 54.84 56.1354 53.73 58.5654 52.29C61.2354 50.7 64.0854 48.66 64.0854 45.21C64.0854 41.04 60.7554 39.18 56.6454 39.18C54.1554 39.18 51.7254 39.84 49.6254 41.34ZM76.7964 39.6L66.2664 52.56V56.28H76.9764V60H81.2664V56.28H84.3564V52.53H81.2664V39.6H76.7964ZM76.9764 52.53H70.9464L76.9764 45.09V52.53ZM48.5277 90V75.6H44.3877V82.14C43.6077 82.47 42.7977 82.59 41.8377 82.59C40.3077 82.59 39.2577 82.05 39.2577 80.34V75.6H35.0877V80.73C35.0877 84.45 37.6077 86.1 40.6977 86.1C42.1377 86.1 43.2477 85.92 44.3877 85.5V90H48.5277ZM64.9388 86.28V81.69C64.9388 76.95 62.1788 75.18 57.8588 75.18C55.6388 75.18 53.4488 75.75 52.2788 76.14V79.74C53.6288 79.2 55.3988 78.66 57.3788 78.66C59.6288 78.66 60.7688 79.65 60.7688 81.09V81.6C59.7488 81.36 58.4888 81.21 57.3488 81.21C54.4688 81.21 51.0188 82.35 51.0188 86.01C51.0188 88.86 53.3588 90.42 56.0588 90.42C58.1888 90.42 59.8388 89.76 61.2488 88.65C61.8488 89.73 62.9588 90.27 64.4288 90.27C65.2388 90.27 66.0788 90.09 66.7388 89.85V87.12C66.4688 87.21 66.1988 87.24 65.9588 87.24C65.4188 87.24 64.9388 87.03 64.9388 86.28ZM58.3088 83.7C59.1788 83.7 60.1388 83.88 60.7688 84.03V86.28C59.8088 87.12 58.6988 87.45 57.5288 87.45C56.2688 87.45 55.2788 86.76 55.2788 85.68C55.2788 84.21 56.7788 83.7 58.3088 83.7ZM68.1631 83.01C68.1631 88.14 72.0931 90.42 76.0231 90.42C77.8531 90.42 79.4731 90.06 80.8831 89.46V85.77C79.8331 86.4 78.3631 86.82 76.8331 86.82C74.5831 86.82 72.4231 85.56 72.4231 82.8C72.4231 79.89 74.6131 78.78 76.8931 78.78C78.2731 78.78 79.7131 79.2 80.7331 79.86V76.2C79.4431 75.51 77.8831 75.15 76.2931 75.15C72.3031 75.15 68.1631 77.49 68.1631 83.01ZM96.638 86.28V81.69C96.638 76.95 93.878 75.18 89.558 75.18C87.338 75.18 85.148 75.75 83.978 76.14V79.74C85.328 79.2 87.098 78.66 89.078 78.66C91.328 78.66 92.468 79.65 92.468 81.09V81.6C91.448 81.36 90.188 81.21 89.048 81.21C86.168 81.21 82.718 82.35 82.718 86.01C82.718 88.86 85.058 90.42 87.758 90.42C89.888 90.42 91.538 89.76 92.948 88.65C93.548 89.73 94.658 90.27 96.128 90.27C96.938 90.27 97.778 90.09 98.438 89.85V87.12C98.168 87.21 97.898 87.24 97.658 87.24C97.118 87.24 96.638 87.03 96.638 86.28ZM90.008 83.7C90.878 83.7 91.838 83.88 92.468 84.03V86.28C91.508 87.12 90.398 87.45 89.228 87.45C87.968 87.45 86.978 86.76 86.978 85.68C86.978 84.21 88.478 83.7 90.008 83.7Z" fill="white"/>
</svg>

<svg width="133" height="133" fill="none" xmlns="http://www.w3.org/2000/svg"><circle cx="67" cy="68" r="35" fill="#EB5757"/><path d="M103.352 15.794l3.38 21.39 19.452 9.92-9.809 19.396 9.864 19.396-19.617 9.92-3.381 21.39-21.557-3.38-15.35 15.295-15.406-15.517-21.391 3.547-3.436-21.557-19.34-9.864 9.864-19.396-9.809-19.23 19.451-10.03 3.38-21.225 21.447 3.547L66.5 3.824l15.35 15.35 21.502-3.38zM52.646 38.792a8.313 8.313 0 100 16.625 8.313 8.313 0 000-16.625zm27.708 38.791a8.313 8.313 0 100 16.626 8.313 8.313 0 000-16.626zM46.605 94.208l47.603-47.603-7.814-7.813-47.602 47.603 7.813 7.813z" fill="#EB5757"/><path d="M49.625 41.34v4.2c2.16-1.65 4.56-2.43 6.6-2.43 2.07 0 3.39.78 3.39 2.28 0 1.95-1.83 2.76-3.96 3.99-3 1.77-6.72 3.69-6.72 8.61V60h15.3v-3.87l-10.2.03c.03-1.32 2.1-2.43 4.53-3.87 2.67-1.59 5.52-3.63 5.52-7.08 0-4.17-3.33-6.03-7.44-6.03-2.49 0-4.92.66-7.02 2.16zm27.171-1.74l-10.53 12.96v3.72h10.71V60h4.29v-3.72h3.09v-3.75h-3.09V39.6h-4.47zm.18 12.93h-6.03l6.03-7.44v7.44zM48.528 90V75.6h-4.14v6.54c-.78.33-1.59.45-2.55.45-1.53 0-2.58-.54-2.58-2.25V75.6h-4.17v5.13c0 3.72 2.52 5.37 5.61 5.37 1.44 0 2.55-.18 3.69-.6V90h4.14zm16.41-3.72v-4.59c0-4.74-2.76-6.51-7.08-6.51-2.22 0-4.41.57-5.58.96v3.6c1.35-.54 3.12-1.08 5.1-1.08 2.25 0 3.39.99 3.39 2.43v.51a15.71 15.71 0 00-3.42-.39c-2.88 0-6.33 1.14-6.33 4.8 0 2.85 2.34 4.41 5.04 4.41 2.13 0 3.78-.66 5.19-1.77.6 1.08 1.71 1.62 3.18 1.62.81 0 1.65-.18 2.31-.42v-2.73c-.27.09-.54.12-.78.12-.54 0-1.02-.21-1.02-.96zm-6.63-2.58c.87 0 1.83.18 2.46.33v2.25c-.96.84-2.07 1.17-3.24 1.17-1.26 0-2.25-.69-2.25-1.77 0-1.47 1.5-1.98 3.03-1.98zm9.855-.69c0 5.13 3.93 7.41 7.86 7.41 1.83 0 3.45-.36 4.86-.96v-3.69c-1.05.63-2.52 1.05-4.05 1.05-2.25 0-4.41-1.26-4.41-4.02 0-2.91 2.19-4.02 4.47-4.02 1.38 0 2.82.42 3.84 1.08V76.2c-1.29-.69-2.85-1.05-4.44-1.05-3.99 0-8.13 2.34-8.13 7.86zm28.475 3.27v-4.59c0-4.74-2.76-6.51-7.08-6.51-2.22 0-4.41.57-5.58.96v3.6c1.35-.54 3.12-1.08 5.1-1.08 2.25 0 3.39.99 3.39 2.43v.51a15.71 15.71 0 00-3.42-.39c-2.88 0-6.33 1.14-6.33 4.8 0 2.85 2.34 4.41 5.04 4.41 2.13 0 3.78-.66 5.19-1.77.6 1.08 1.71 1.62 3.18 1.62.81 0 1.65-.18 2.31-.42v-2.73c-.27.09-.54.12-.78.12-.54 0-1.02-.21-1.02-.96zm-6.63-2.58c.87 0 1.83.18 2.46.33v2.25c-.96.84-2.07 1.17-3.24 1.17-1.26 0-2.25-.69-2.25-1.77 0-1.47 1.5-1.98 3.03-1.98z" fill="#fff"/></svg>
